X: 109
T: Miss Sayer's Allemand
M:2/4
L:1/8
Q:160
S:Playford
O:Manuscript
A:English
K:F
c \
| aa aa | a3 b | ag fe | f/2e/2f/2g/2 f>c | aa a3 b | ag fe | f3 :|
|: A2 FC | B2 G2 | cB/2c/2 dg | f2 e2 | A2 FC | B2 GB | AG FE | F4 :|
